dist/svg/u1F45F.svg

<?xml version="1.0" encoding="UTF-8"?><svg id="a" xmlns="http://www.w3.org/2000/svg" viewBox="0 0 40 40"><g><path d="M3.99,27.477c-1.09,0-1.931-.961-1.787-2.041l1.894-14.177c.158-1.18,1.577-1.699,2.459-.9,7.2,6.527,12.38-.257,12.38-.257l16.883,12.718c1.814,1.366,2.816,3.555,2.666,5.821l-.002,.035L3.99,27.477Z" fill="#ccdfe3"/><path d="M18.936,10.109l-3.46-2.282s-2.055,2.723-.549,5.043c0,0,1.727-.184,4.009-2.761Z" fill="#4e7698"/><path d="M20.118,17.95c.753,.654,1.894,.573,2.548-.18l2.535-2.921-2.845-2.162-2.419,2.715c-.654,.753-.573,1.894,.18,2.548Z" fill="#4e7698"/><path d="M25.436,20.561c.753,.654,1.894,.573,2.548-.18l1.813-2.089-2.892-2.179-1.649,1.9c-.654,.753-.573,1.894,.18,2.548Z" fill="#4e7698"/><path d="M3.467,32.173h31.609c1.96,0,3.454-1.627,3.407-3.497L2.24,25.288l-.722,4.658c-.158,1.179,.76,2.227,1.95,2.227Z" fill="#4e7698"/><path d="M3.093,18.899s5.598,2.065,6.317,7.06l-7.17-.67,.854-6.389Z" fill="#7b9fc2"/></g><rect width="40" height="40" fill="none"/></svg>

<svg id="Layer_1" data-name="Layer 1" xmlns="http://www.w3.org/2000/svg" viewBox="0 0 40 40"><defs><style>.cls-1{fill:#ccdfe3;}.cls-2{fill:#4e7698;}.cls-3{fill:#7b9fc2;}.cls-4{fill:none;}</style></defs><path class="cls-1" d="M3.99,27.477A1.8,1.8,0,0,1,2.2,25.436L4.1,11.259a1.48,1.48,0,0,1,2.459-.9c7.2,6.528,12.38-.256,12.38-.256L35.819,22.821a6.73,6.73,0,0,1,2.666,5.821l0,.034Z"/><path class="cls-2" d="M18.936,10.109l-3.46-2.282s-2.055,2.723-.549,5.043C14.927,12.87,16.654,12.686,18.936,10.109Z"/><path class="cls-2" d="M20.118,17.95a1.806,1.806,0,0,0,2.548-.18L25.2,14.849l-2.844-2.162L19.938,15.4A1.806,1.806,0,0,0,20.118,17.95Z"/><path class="cls-2" d="M25.436,20.561a1.806,1.806,0,0,0,2.548-.18L29.8,18.292,26.9,16.113l-1.648,1.9A1.806,1.806,0,0,0,25.436,20.561Z"/><path class="cls-2" d="M3.467,32.173H35.076a3.411,3.411,0,0,0,3.407-3.5L2.24,25.288l-.722,4.658A1.966,1.966,0,0,0,3.467,32.173Z"/><path class="cls-3" d="M3.093,18.9s5.6,2.065,6.317,7.059l-7.17-.67Z"/><rect class="cls-4" width="40" height="40"/></svg>
